Yosa-Max/apps/scalable/filezilla.svg

<?xml version="1.0" encoding="UTF-8"?>
<svg id="svg21" version="1.1" viewBox="0 0 48 48" xmlns="http://www.w3.org/2000/svg" xmlns:xlink="http://www.w3.org/1999/xlink">
 <defs id="defs25">
  <linearGradient id="linearGradient829" x1="32" x2="32" y1="58" y2="15" gradientTransform="matrix(.70967742 0 0 .70967742 1.290323 1.2903226)" gradientUnits="userSpaceOnUse">
   <stop id="stop823" style="stop-color:#cd2b2b" offset="0"/>
   <stop id="stop825" style="stop-color:#da4646" offset="1"/>
  </linearGradient>
 </defs>
 <path id="folderTab" d="m4.1290327 5.5483871c-0.3911884 0.0391174-0.7096774 0.3165161-0.7096774 0.7096774v29.806452h41.161291v-26.967742c0-0.7096774-0.709678-0.7096774-0.709678-0.7096774h-19.16129c-1.419355-2.8387097-4.258065-2.8387097-4.258065-2.8387097h-15.612903z" style="fill-rule:evenodd;fill:#9a2020"/>
 <path id="folderPaper-4" d="m6.2580649 10.516129h35.483871v22.709678h-35.483871z" style="color-rendering:auto;color:#000000;fill:#ffffff;image-rendering:auto;isolation:auto;mix-blend-mode:normal;shape-rendering:auto;solid-color:#000000;text-decoration-color:#000000;text-decoration-line:none;text-decoration-style:solid;white-space:normal"/>
 <path id="folderFront-8" d="m28.967742 11.935484s-2.838709 0-4.258064 2.83871h-22s-0.093663 0.012-0.2051411 0.04158c-0.032614 0.01-0.065235 0.01616-0.09564 0.03049-0.1946151 0.07795-0.4088962 0.243569-0.4088962 0.637603v26.258065c0 0.39314 0.3165374 0.709677 0.7096774 0.709677h42.580645c0.39314 4e-6 0.709677-0.316533 0.709677-0.709673v-29.096775c0-0.39314-0.316537-0.709677-0.709677-0.709677h-0.709677z" style="fill-rule:evenodd;fill:url(#linearGradient829)"/>
 <path id="path17" d="m19.243124 20.870656-3.243124 14.386069h2.635055l1.530669-6.438253h7.192726l-6.736104 6.030248 1.756336 2.022185 0.89946-0.463467c1.700949-0.874536 2.414313-0.363187 3.704794-0.0049 1.255467 0.348411 2.435732 0.721303 4.884384-0.690164l-0.486284-2.491238c-2.67235 1.900089-3.517777 0.20484-5.42113 0.13754l5.448699-4.610506 0.591395-2.461575h-11.414331l0.734782-2.954139h7.481346l0.513067-2.461392h-10.072158z" style="fill:#ffffff"/>
</svg>

<?xml version="1.0" encoding="UTF-8" standalone="no"?>
<svg
   xmlns:dc="http://purl.org/dc/elements/1.1/"
   xmlns:cc="http://creativecommons.org/ns#"
   xmlns:rdf="http://www.w3.org/1999/02/22-rdf-syntax-ns#"
   xmlns:svg="http://www.w3.org/2000/svg"
   xmlns="http://www.w3.org/2000/svg"
   xmlns:xlink="http://www.w3.org/1999/xlink"
   xmlns:sodipodi="http://sodipodi.sourceforge.net/DTD/sodipodi-0.dtd"
   xmlns:inkscape="http://www.inkscape.org/namespaces/inkscape"
   height="48"
   viewBox="0 0 48 48"
   width="48"
   version="1.1"
   id="svg21"
   sodipodi:docname="filezilla.svg"
   inkscape:version="0.92.2 2405546, 2018-03-11">
  <metadata
     id="metadata27">
    <rdf:RDF>
      <cc:Work
         rdf:about="">
        <dc:format>image/svg+xml</dc:format>
        <dc:type
           rdf:resource="http://purl.org/dc/dcmitype/StillImage" />
      </cc:Work>
    </rdf:RDF>
  </metadata>
  <defs
     id="defs25">
    <linearGradient
       gradientUnits="userSpaceOnUse"
       y2="15"
       x2="32"
       y1="58"
       x1="32"
       id="linearGradient829"
       xlink:href="#linearGradient827"
       gradientTransform="matrix(0.70967742,0,0,0.70967742,1.290323,1.2903226)" />
    <linearGradient
       id="linearGradient827">
      <stop
         id="stop823"
         offset="0"
         style="stop-color:#cd2b2b;stop-opacity:1" />
      <stop
         id="stop825"
         offset="1"
         style="stop-color:#da4646;stop-opacity:1" />
    </linearGradient>
  </defs>
  <sodipodi:namedview
     pagecolor="#ffffff"
     bordercolor="#666666"
     borderopacity="1"
     objecttolerance="10"
     gridtolerance="10"
     guidetolerance="10"
     inkscape:pageopacity="0"
     inkscape:pageshadow="2"
     inkscape:window-width="1366"
     inkscape:window-height="699"
     id="namedview23"
     showgrid="false"
     inkscape:zoom="13.196678"
     inkscape:cx="24"
     inkscape:cy="24"
     inkscape:window-x="0"
     inkscape:window-y="0"
     inkscape:window-maximized="1"
     inkscape:current-layer="svg21" />
  <linearGradient
     id="a"
     gradientUnits="userSpaceOnUse"
     x1="11.976415852527"
     x2="11.521748365994"
     y1="41.731978513303"
     y2="5.542616037021"
     gradientTransform="translate(-53.135594,0.52306318)">
    <stop
       offset="0"
       stop-color="#fd415a"
       id="stop2" />
    <stop
       offset="1"
       stop-color="#f55"
       id="stop4" />
  </linearGradient>
  <path
     id="folderTab"
     d="M 4.1290327,5.5483871 C 3.7378443,5.5875045 3.4193553,5.8649032 3.4193553,6.2580645 V 7.6774194 36.064516 H 44.580646 V 11.225806 10.516129 9.0967742 c 0,-0.7096774 -0.709678,-0.7096774 -0.709678,-0.7096774 H 42.451613 27.548388 24.709678 C 23.290323,5.5483871 20.451613,5.5483871 20.451613,5.5483871 H 4.8387101 Z"
     style="fill:#9a2020;fill-opacity:1;fill-rule:evenodd;stroke:none;stroke-width:0.7096774px;stroke-linecap:butt;stroke-linejoin:miter;stroke-opacity:1"
     inkscape:connector-curvature="0" />
  <path
     id="folderPaper-4"
     d="M 6.2580649,10.516129 H 41.741936 V 33.225807 H 6.2580649 Z"
     style="color:#000000;text-decoration:none;text-decoration-line:none;text-decoration-style:solid;text-decoration-color:#000000;white-space:normal;clip-rule:nonzero;display:inline;overflow:visible;visibility:visible;opacity:1;isolation:auto;mix-blend-mode:normal;color-interpolation:sRGB;color-interpolation-filters:linearRGB;solid-color:#000000;solid-opacity:1;fill:#ffffff;fill-opacity:1;fill-rule:nonzero;stroke:none;stroke-width:0.7096774;stroke-linecap:butt;stroke-linejoin:miter;stroke-miterlimit:4;stroke-dasharray:none;stroke-dashoffset:0;stroke-opacity:1;color-rendering:auto;image-rendering:auto;shape-rendering:auto;text-rendering:auto;enable-background:accumulate"
     inkscape:connector-curvature="0" />
  <path
     id="folderFront-8"
     d="m 28.967742,11.935484 c 0,0 -2.838709,0 -4.258064,2.83871 H 21.870968 4.1290327 2.7096778 c 0,0 -0.093663,0.012 -0.2051411,0.04158 -0.032614,0.01 -0.065235,0.01616 -0.09564,0.03049 -0.1946151,0.07795 -0.4088962,0.243569 -0.4088962,0.637603 v 1.419355 0.709677 24.129033 c 0,0.39314 0.3165374,0.709677 0.7096774,0.709677 H 45.290323 C 45.683463,42.451613 46,42.135076 46,41.741936 v -27.67742 -1.419355 c 0,-0.39314 -0.316537,-0.709677 -0.709677,-0.709677 h -0.709677 z"
     style="fill:url(#linearGradient829);fill-opacity:1;fill-rule:evenodd;stroke:none;stroke-width:0.7096774px;stroke-linecap:butt;stroke-linejoin:miter;stroke-opacity:1"
     inkscape:connector-curvature="0" />
  <path
     style="fill:#ffffff;stroke-width:1"
     inkscape:connector-curvature="0"
     id="path17"
     d="M 19.243124,20.870656 16,35.256725 h 2.635055 l 1.530669,-6.438253 h 7.192726 l -6.736104,6.030248 1.756336,2.022185 0.89946,-0.463467 c 1.700949,-0.874536 2.414313,-0.363187 3.704794,-0.0049 1.255467,0.348411 2.435732,0.721303 4.884384,-0.690164 l -0.486284,-2.491238 c -2.67235,1.900089 -3.517777,0.20484 -5.42113,0.13754 L 31.408605,28.74817 32,26.286595 H 20.585669 l 0.734782,-2.954139 h 7.481346 l 0.513067,-2.461392 H 19.242706 Z" />
</svg>
